// Amensister (Felix Roos, CC BY-NC-SA 4.0) | genres: jungle,dnb,drum,bass,breaks | bpm: 170 | layers: amen bass chord alien blips
samples('github:tidalcycles/dirt-samples')
useRNG('legacy')
$amen: n("0 1 2 3 4 5 6 7").sometimes(x=>x.ply(2)).rarely(x=>x.speed("2 | -2")).sometimesBy(.4, x=>x.delay(".5")).s("amencutup").slow(2).room(.5)
$bass: sine.add(saw.slow(4)).range(0,7).segment(8).superimpose(x=>x.add(.1)).scale('G0 minor').note().s("sawtooth").gain(.4).decay(.1).sustain(0).lpa(.1).lpenv(-4).lpq(10).cutoff(perlin.range(300,3000).slow(8)).degradeBy("0 0.1 .5 .1").rarely(add(note("12")))
$chord: note("Bb3,D4".superimpose(x=>x.add(.2))).s('sawtooth').lpf(1000).struct("<~@3 [~ x]>").decay(.05).sustain(.0).delay(.8).delaytime(.125).room(.8)
$alien: s("breath").room(1).shape(.6).chop(16).rev().mask("<x ~@7>")
$blips: n("0 1").s("east").delay(.5).degradeBy(.8).speed(rand.range(.5,1.5))
