// "acidic tooth" — acid techno · eddyflux · ~120 (setcps(1))
// "acidic tooth" @by eddyflux
// @version 1.0
  setcps(1)
  stack(
    note("[<g1 f1>/8](<3 5>,8)")
    .clip(perlin.range(.15,1.5))
    .release(.1)
    .s("sawtooth")
    .lpf(sine.range(400,800).slow(16))
    .lpq(cosine.range(6,14).slow(3))
    .lpenv(sine.mul(4).slow(4))
    .lpd(.2).lpa(.02)
    .ftype('24db')
    .rarely(add(note(12)))
    .room(.2).shape(.3).postgain(.5)
    .superimpose(x=>x.add(note(12)).delay(.5).bpf(1000))
    .gain("[.2 1@3]*2") // fake sidechain
    ,
    stack(
      s("bd*2").mask("<0@4 1@16>"),
      s("hh*8").gain(saw.mul(saw.fast(2))).clip(sine)
      .mask("<0@8 1@16>")
    ).bank('RolandTR909')
  )
